P3
# Captura sintetica 8x8: cabecera oscura, zona de formulario y aviso.
8 8
255
20 20 20 20 20 20 20 20 20 20 20 20 20 20 20 20 20 20 20 20 20 20 20 20
20 20 20 230 230 230 230 230 230 230 230 230 230 230 230 20 20 20 20 20 20 20 20 20
245 245 245 245 245 245 245 245 245 245 245 245 245 245 245 245 245 245 245 245 245 245 245 245
245 245 245 210 210 210 210 210 210 210 210 210 210 210 210 245 245 245 245 245 245 245 245 245
245 245 245 210 210 210 255 255 255 255 255 255 210 210 210 245 245 245 245 245 245 245 245 245
245 245 245 210 210 210 255 255 255 255 255 255 210 210 210 245 245 245 245 245 245 245 245 245
245 245 245 245 245 245 245 245 245 245 245 245 245 245 245 245 245 245 245 245 245 245 245 245
245 245 245 245 245 245 245 245 245 245 245 220 30 30 220 30 30 220 30 30 245 245 245 245
